X: 19622
T: Jarlath's
R: reel
M: 4/4
K: Gmajor
BA|G3B AG3|ABBB AG3|ABBB BAGA|BAA2 A2 BA|
G3B AG3|ABBB AG3|d4 d3B|deBA GEDE|
G3B AG3|ABBB AG3|ABBB BAGA|BAA2 A2 BA|
G3B AG3|ABBB AG3|ABde d2dB|deBA G2 Bd|
|:g2ga ab~b2|bage g2ag|egga gedg|edBe A2 BA|
GABd egaf|gedB edB2|c3d e/f/g af|1 gede gaba:|2 gedB edBA||

